svgs/sharp-regular/film-canister.svg

<svg xmlns="http://www.w3.org/2000/svg" viewBox="0 0 576 512"><!--! Font Awesome Pro 6.6.0 by @fontawesome - https://fontawesome.com License - https://fontawesome.com/license (Commercial License) Copyright 2024 Fonticons, Inc. --><path d="M96 0L256 0l0 32 40 0 32 0 24 0 0 48-24 0-8 0 0 384 8 0 24 0 0 48-24 0-32 0L56 512l-32 0L0 512l0-48 24 0 8 0L32 80l-8 0L0 80 0 32l24 0 32 0 40 0L96 0zM80 80l0 384 192 0 0-384L80 80zm496 48l0 192-64 0 0 96-160 0 0-288 224 0zM392 168l0 48 48 0 0-48-48 0zm144 0l-48 0 0 48 48 0 0-48zM392 328l0 48 48 0 0-48-48 0z"/></svg>

<svg xmlns="http://www.w3.org/2000/svg" viewBox="0 0 576 512"><!--! Font Awesome Pro 6.5.2 by @fontawesome - https://fontawesome.com License - https://fontawesome.com/license (Commercial License) Copyright 2024 Fonticons, Inc. --><path d="M96 0H256V32h40 32 24V80H328h-8V464h8 24v48H328 296 56 24 0V464H24h8V80H24 0V32H24 56 96V0zM80 80V464H272V80H80zm496 48V320H512v96H352V128H576zM392 168v48h48V168H392zm144 0H488v48h48V168zM392 328v48h48V328H392z"/></svg>
